<?xml version="1.0" encoding="UTF-8"?>
<map version="1.10" tiledversion="1.11.2" orientation="orthogonal" renderorder="right-up" width="20" height="20" tilewidth="16" tileheight="16" infinite="0" nextlayerid="2" nextobjectid="1">
 <tileset firstgid="1" source="dirt.tsx"/>
 <tileset firstgid="7" source="grass.tsx"/>
 <tileset firstgid="13" source="shore.tsx"/>
 <tileset firstgid="43" source="water.tsx"/>
 <layer id="1" name="Tile Layer 1" width="20" height="20">
  <data encoding="csv">
1,2,3,0,0,0,0,0,0,0,0,0,0,0,0,0,0,0,0,0,
4,5,6,0,0,0,0,0,0,0,0,0,0,0,0,0,0,0,0,0,
0,0,0,7,8,9,0,0,0,0,0,0,0,0,0,0,0,0,0,0,
0,0,0,10,11,12,0,0,0,0,0,0,0,0,0,0,0,0,0,0,
0,0,0,0,0,0,13,14,15,16,17,0,0,0,0,0,0,0,0,0,
0,0,0,0,0,0,18,19,20,21,22,0,0,0,0,0,0,0,0,0,
0,0,0,0,0,0,23,24,25,26,27,0,0,0,0,0,0,0,0,0,
0,0,0,0,0,0,28,29,30,31,32,0,0,0,0,0,0,0,0,0,
0,0,0,0,0,0,33,34,35,36,37,0,0,0,0,0,0,0,0,0,
0,0,0,0,0,0,38,39,40,41,42,0,0,0,0,0,0,0,0,0,
0,0,0,0,0,0,0,0,0,0,0,43,44,45,46,47,0,0,0,0,
0,0,0,0,0,0,0,0,0,0,0,0,0,0,0,0,0,0,0,0,
0,0,0,0,0,0,0,0,0,0,0,0,0,0,0,0,0,0,0,0,
0,0,0,0,0,0,0,0,0,0,0,0,0,0,0,0,0,0,0,0,
0,0,0,0,0,0,0,0,0,0,0,0,0,0,0,0,0,0,0,0,
0,0,0,0,0,0,0,0,0,0,0,0,0,0,0,0,0,0,0,0,
0,0,0,0,0,0,0,0,0,0,0,0,0,0,0,0,0,0,0,0,
0,0,0,0,0,0,0,0,0,0,0,0,0,0,0,0,0,0,0,0,
0,0,0,0,0,0,0,0,0,0,0,0,0,0,0,0,0,0,0,0,
0,0,0,0,0,0,0,0,0,0,0,0,0,0,0,0,0,0,0,0
</data>
 </layer>
</map>
